X:1
T:Vedovetta ritrosetta
T:Simone Molinaro Genovese
T:Source : Canzonette a tre voci---Libro secondo---Venetia---R.Amadino---1600. Editor : André Vierendeels (26/11/16).
T:Notes : Original clefs :C3, C4, F4
T:Vedovetta ritrosetta
T:©
T:©
C:Simone Molinaro Genovese
Z:©
%%score [ 1 2 3 ]
L:1/8
Q:1/4=120
M:4/4
K:C
V:1 treble nm="Alto" snm="A"
V:2 treble-8 nm="Tenor" snm="T"
V:3 bass nm="Bass" snm="B"
V:1
 B,2 C2 D4 | E2 C4 C2 | D4 C4 | G,2 A,2 B,2 D2- | D2 C4 B,2 | A,4 G,4 :: D2 D2 E4 | D2 F4 F2 | %8
w: Ve- do- vet-|ta, ri- tro-|set- ta,|ch'el mio mal ti|_ pren- di'a|gio- co,|mi- ra, mi-|ra, co- me|
 E4 D4 | A,2 A,2 C4 | G,2 C4 B,2 | A,4 G,4 :| %12
w: spi- ra,|ne miei ver-|s'il tuo bel|fo- co.|
V:2
 d2 c2 B4 | G2 A2 A2 c2- | d2 B2 c4 | E2 ^F2 G2 B2- | B2 A4 G2- | G2 ^F2 G4 :: B2 B2 c4 | %7
w: Ve do- vet-|ta, ri- tro- set-|* * ta,|ch'el mio mal ti-|* pren di'a|_ gio- co,|mi- ra, mi-|
 B2 A2 A2 d2- | d2 ^c2 d4 | z4 A2 A2 | E3 F G2 G2- | G2 ^F2 G4 :| %12
w: ra, co- me spi-|* * ra,|ne miei|ver- s'il tuo bel|_ fo- co.|
V:3
 G,2 A,2 G,4 | E,2 F,4 A,2 | G,4 C,4 | C,2 A,,2 G,,3 A,, | B,,2 C,2 D,4- | D,4 G,,4 :: %6
w: Ve- do- vet-|ta, ri- tro-|set- ta,|ch'el mio mal ti|pren- di'a gio-|* co,|
 G,2 G,2 C,4 | G,2 D,4 D,2 | A,4 D,4- | D,4 A,,2 A,,2 | C,3 D, E,2 G,2 | D,4 G,,4 :| %12
w: mi- ra, mi-|ra, co- me|spi- ra,|_ ne miei|ver- s'il tuo bel|fo- co.|

